src/ios-undo-outline.svg

<?xml version="1.0" encoding="utf-8"?>
<!-- Generated by IcoMoon.io -->
<!DOCTYPE svg PUBLIC "-//W3C//DTD SVG 1.1//EN" "http://www.w3.org/Graphics/SVG/1.1/DTD/svg11.dtd">
<svg version="1.1" xmlns="http://www.w3.org/2000/svg" xmlns:xlink="http://www.w3.org/1999/xlink" width="512" height="512" viewBox="0 0 512 512">
<path fill="#000000" d="M447.9 368.2c0-16.8 3.6-83.1-48.7-135.7-35.2-35.4-80.3-53.4-143.3-56.2v-80.3l-191.9 128 192 128v-79.8c40 1.1 62.4 9.1 86.7 20 30.9 13.8 55.3 44 75.8 76.6l19.2 31.2h10.3c0-10.1-0.1-22.9-0.1-31.8zM432.2 361.4c-47.6-80.8-101.2-105.4-192.2-105.4v64.8l-148.1-96.7 148.1-96.8v64.7c201 0 192.2 169.4 192.2 169.4z"></path>
</svg>

<?xml version="1.0" encoding="utf-8"?>
<!-- Generator: Adobe Illustrator 16.2.1, SVG Export Plug-In . SVG Version: 6.00 Build 0)  -->
<!DOCTYPE svg PUBLIC "-//W3C//DTD SVG 1.1//EN" "http://www.w3.org/Graphics/SVG/1.1/DTD/svg11.dtd">
<svg version="1.1" id="Layer_1" xmlns="http://www.w3.org/2000/svg" xmlns:xlink="http://www.w3.org/1999/xlink" x="0px" y="0px"
	 width="512px" height="512px" viewBox="0 0 512 512" style="enable-background:new 0 0 512 512;" xml:space="preserve">
<g>
	<path d="M447.9,368.2c0-16.8,3.6-83.1-48.7-135.7c-35.2-35.4-80.3-53.4-143.3-56.2V96L64,224l192,128v-79.8
		c40,1.1,62.4,9.1,86.7,20c30.9,13.8,55.3,44,75.8,76.6l19.2,31.2H448C448,389.9,447.9,377.1,447.9,368.2z M432.2,361.4
		C384.6,280.6,331,256,240,256v64.8L91.9,224.1L240,127.3V192C441,192,432.2,361.4,432.2,361.4z"/>
</g>
</svg>
